X:1
T:Little Raindrops
T:John Sylvester Fearis
T:Little Raindrops
T:Public Domain
T:Public Domain
C:John Sylvester Fearis
Z:Public Domain
%%score ( 1 2 ) ( 3 4 )
L:1/8
M:2/4
K:G
V:1 treble 
V:2 treble 
V:3 bass 
V:4 bass 
V:1
 [B,D][DB] [DB][Ec] | [DB]2 [DA]2 | [CD][CA] [CA][DB] | [B,G]4 | [B,D][DB] [DB][Ec] | [Dc]2 [DA]2 | %6
w: 1.~When God sees the|flow- ers|Need His ten- der|care,|He sends lit- tle|rain- drops|
w: 2.~We are lit- tle|rain- drops,|God has sent us|here,|From His fount of|bless- ing,|
w: 3.~Ev- ery drop re-|flect- ing|God’s most ten- der|love|Helps to light the|path- way|
w: 4.~Tho’ we are but|rain- drops,|We are glad to|know,|That we have a|mis- sion,|
 [DE][DA] [^CE][CA] | (D2 c2) ||"^Refrain" [DB][B,D] [CA][CD] | [B,G]2 [B,D]2 | [CE][EG] [DF][CE] | %11
w: With a bless- ing|there. *||||
w: Bring- ing hope and|cheer. *|sy lit- tle rain-|drops Let|us be to- day,|
w: To the home a-|bove. *||||
w: In this world be-|low. *||||
 [B,D]4 [CD][CF][CA][CD] | [B,D][B,G] [DB][DG] | [DF][DA] [^CE][CA] | (D2 c2) | %15
w: ||||
w: As we strive to scat-|ter bless- ings, All|a- long the way;|Help- *|
w: ||||
w: ||||
 [DB][B,D] [CA][CD] | [B,G]2 [B,D]2 | [CE][DF] [EG][EA] | [^DB]4 | [DB][DB] [DA][DB] | %20
w: |||||
w: lit- tle rain- drops|Will we|be to- day, Do-|ing|work for Je- sus|
w: |||||
w: |||||
 [=Fd][Ec] [EB][EA] | [DG]2 [CF]2 | [B,G]4 |] %23
w: |||
w: In a rain- drop’s|way. *||
w: |||
w: |||
V:2
 x4 | x4 | x4 | x4 | x4 | x4 | x4 | D4 || x4 | x4 | x4 | x8 | x4 | x4 | D4 | x4 | x4 | x4 | x4 | %19
w: |||||||||||||||||||
w: |||||||Bu-|||||||ful|||||
 x4 | x4 | x4 | x4 |] %23
w: ||||
w: ||||
V:3
 [G,,G,][G,,G,] [G,,G,][G,,G,] | [D,G,]2 [D,F,]2 | [D,F,][D,F,] [D,F,][D,F,] | [G,,G,]4 | %4
 [G,,G,][G,,G,] [G,,G,][G,,G,] | [D,G,]2 [D,F,]2 | [A,,G,][A,,G,] [A,,G,][A,,G,] | [D,F,]4 || %8
 G,G, [D,F,][D,F,] | [G,,G,]2 [G,,G,]2 | [C,G,][C,G,] [C,G,][C,G,] | %11
 [G,,G,]4 [D,F,][D,A,][D,F,][D,F,] | [G,,G,][G,,G,] [G,,G,][G,,B,] | %13
 [A,,A,][A,,F,] [A,,G,][A,,G,] | [D,F,]4 | G,G, [D,F,][D,F,] | [G,,G,]2 [G,,G,]2 | %17
 [C,G,][C,G,] [C,C][C,E,] | [B,,F,]4 | [E,^G,][E,G,] [E,F,][E,G,] | [A,,A,][A,,A,] [B,,D][C,C] | %21
 [D,B,]2 [D,A,]2 | G,4 |] %23
V:4
 x4 | x4 | x4 | x4 | x4 | x4 | x4 | x4 || G,G, x2 | x4 | x4 | x8 | x4 | x4 | x4 | G,G, x2 | x4 | %17
 x4 | x4 | x4 | x4 | x4 | G,4 |] %23

